!!!OTL: 1190. Zum Namenstage Jesu.
!!!ODT: 1840
!!!ARE: Europa, Mitteleuropa, Deutschland, Schlesien, Neisse, Korkwitz
!!!SCT: E1190
!!!TXL: @@DE
!!!YEM: Copyright 1995, estate of Helmut Schaffrath.
**kern	**text
*ICvox	*
*M2/4	*
*k[f#]	*
*G:	*
!LO:TX:a:t=Mäßig langsam.	!
!LO:TX:a:t=Korkwitʒ bei Neiße (Schleſien). 1840.	!
{8d	Es
=1	=1
8g	blühn
8g	drei
8a	Roſen
8a	auf
=2	=2
8b/	ei-
8b/	-nem
4a}	Ʒweig
=3	=3
{8b	o
16ccL	Ma-
16bJ	.
4a	-ri-
=4	=4
4g	-a!
8r}	.
{8d	Sie
=5	=5
8g	blühten
8g	al-
8a	-le_drei
8a	ins
=6	=6
8b/	Him-
8b/	-mel-
4a}	-reich.
=7	=7
{8b	o
16ccL	Ma-
16bJ	.
4a	-ri-
=8	=8
4g	-a!
8r	.
8r}	.
=9	=9
{8a	O
8g	Ma-
8a	-ri-
8b/	-a
=10	=10
8cc	ü-
8b	-ber-
8a}	-all,
{16bL	wir
16aJ	.
=11	=11
8g	grü-
8g	-ßen
8a	dich
8a	viel
=12	=12
8b/	tau-
8b/	-ſend-
8a}	-mal,
{16ddL	viel
16ccJ	.
=13	=13
4b/	tau-
4a	-ſend-
=14	=14
4g	-mal!
8r}	.
==	==
!!!AGN: Ansinge -, Brauchtums - Lied, Kirchen - Fest, Silvester, Namenstag, und Taufe Jesu
!!!ONB: ESAC (Essen Associative Code) Database: ERK3
!!!AMT: simple duple
!!!AIN: vox
!!!EED: Helmut Schaffrath
!!!EEV: 1.0
!!!GTL: Ansingelieder an Volks- und Kirchenfesten.
!!!URL-scan: https://rosdok.uni-rostock.de/mcrviewer/recordIdentifier/rosdok_ppn745177999/iview2/phys_0111.iview2?x=188.1684953369795&y=245.39708025520667&scale=0.701185927818147&rotation=0&layout=singlePageLayout
!!!ENC: Anna Maria Matuszewska
!!!EEV: 2024/12/23
*-	*-
